X:1
T:Polka norvgienne
M:2/4
L:1/16
K:G
dedc BdBG|dedc BdBG|B2A2 d3F|A2Ge dBG2|dedc BdBG|dedc BdBG|
B2A2 d3F|A2G2 G4 || g4 egec|d4 BdBG|B2A2 d3F|A2Ge dBG2|
g4 egec|d4 BdBG|B2A2 d3F|A2G2 G4 || dedc BdBG|dedc BdBG|
e=fed cecA|e=fed cecA|dedc BdBG|dedc BdBG|B2A2 d2dF|A2G2 G4|
|:gceg cegc|dGBd GBdG|dFAd FAdF|1 dGBd GBdG:|2 A2G2 G4|
